!!!!SEGMENT: Gom3001-Gris_et_tanne_me_fault_porter.krn
!!!id: Gom3001
!!!AGN: Chanson
!!!SCT: Schmidt-Görg (1975)
!!!voices: 4
!!!COM: Nicolas Gombert
!!!OTL: Gris et tanné me fault porter
**kern	**kern	**kern	**kern
*part4	*part3	*part2	*part1
*staff4	*staff3	*staff2	*staff1
*I"Bassus	*I"Tenor	*I"Altus	*I"Superius
*I'B	*I'T	*I'A	*I'S
*clefF4	*clefGv2	*clefGv2	*clefG2
*k[b-]	*k[b-]	*k[b-]	*k[b-]
*F:	*F:	*F:	*F:
*M2/1	*M2/1	*M2/1	*M2/1
*met(C|)	*met(C|)	*met(C|)	*met(C|)
=1	=1	=1	=1
0r	0r	0r	1a
.	.	.	2g
.	.	.	2a
=2	=2	=2	=2
0r	0r	0r	2.f
.	.	.	4g
.	.	.	2a
.	.	.	[2b-y
=3	=3	=3	=3
0r	1d	0r	2b-]
.	.	.	2.a
.	2c	.	.
.	.	.	4g
.	2d	.	4f
.	.	.	4e
=4	=4	=4	=4
0r	2.B-y	0r	2d
.	.	.	2d
.	4c	.	.
.	2d	.	2f
.	[2e-X	.	2g
=5	=5	=5	=5
1G	2e-]	0r	1b-y
.	2.d	.	.
2F	.	.	2a
.	4c	.	.
2G	4B-y	.	[2g
.	4A	.	.
=6	=6	=6	=6
2.E	2G	2r	2g]
.	2G	1g	4f
4F	.	.	4e
2G	2B-y	.	4d
.	.	.	4c
2A	2c	2f	[2cc
=7	=7	=7	=7
1G	2e-i	1g	2cc]
.	2d	.	2b-y
2r	2c	2.e	2a
2C	[2e-iy	.	[2g
.	.	4f	.
=8	=8	=8	=8
2E	2e-y]	2g	2g]
2F	1d	2.a	2f
1A	.	.	1e
.	.	4g	.
.	2c	2e	.
=9	=9	=9	=9
2.D	2d	2f	2d
.	2F	2.a	2dd
4E	.	.	.
2F	2A	.	2cc
.	.	4g	.
2G	2B-y	[2g	2b-y
=10	=10	=10	=10
1D	2.d	2g]	1a
.	.	2f#i	.
.	4c	.	.
2.E-X	4B-y	1g	2r
.	4G	.	.
.	(2c	.	2g
8DL	.	.	.
8CJ	.	.	.
=11	=11	=11	=11
1D	4c)	1r	2.f
.	8BniL	.	.
.	8AJ	.	.
.	2Bni	.	.
.	.	.	4g
1C	1c	1G	2.e
.	.	.	4f
=12	=12	=12	=12
1r	0r	2B-y	2g
.	.	2c	1a
1C	.	[1e-X	.
.	.	.	[2g
=13	=13	=13	=13
2E	1r	2e-y]	2g]
2F	.	2d	2f
2.A	2r	2e-y	2.cc
.	2F	[2f	.
4G	.	.	4b-y
=14	=14	=14	=14
2F	2A	2f]	2a
2.G	2B-y	2d	2g
.	2.d	2g	2b-y
4F	.	.	.
2D	.	2f	[2a
.	4c	.	.
=15	=15	=15	=15
2E	2B-y	1e	4a]
.	.	.	4g
2C	2c	.	1g
1D	2B-y	2.d	.
.	2A	.	2f#i
.	.	4f	.
=16	=16	=16	=16
2.C	2r	1e	1g
.	2c	.	.
4BB-y	.	.	.
1GG	2c	1d	2r
.	2B-y	.	2g
=17	=17	=17	=17
0r	2c	0r	2g
.	2d	.	2f
.	2B-y	.	2g
.	2c	.	2a
=18	=18	=18	=18
0r	4d	2r	2f
.	4c	.	.
.	4B-y	2d	4g
.	4A	.	4f
.	2G	2d	2b-y
.	2A	2c	[2a
=19	=19	=19	=19
1r	2B-y	2d	2a]
.	2c	2e	2g
2r	2.F	2c	1a
2D	.	2d	.
.	4G	.	.
=20	=20	=20	=20
2D	4A	4f	2r
.	4B-y	4d	.
2C	2c	2e	2a
2D	1B-y	2f	2a
2E	.	[2e-X	2g
=21	=21	=21	=21
2C	1A	2e-]	2.a
2D	.	1d	.
.	.	.	4f
2E	2r	.	2g
2F	2F	2c	2a
=22	=22	=22	=22
2BB-y	2F	1d	1b-y
2BB-y	2F	.	.
2BB-y	2B-y	2r	1r
2BB-y	2G	2B-y	.
=23	=23	=23	=23
1E-X	2G	2B-y	2r
.	2G	2B-y	2g
2r	1c	1e-i	2g
2C	.	.	2g
=24	=24	=24	=24
2C	2r	2r	1cc
2C	2A	2c	.
2.F	2A	2c	2r
.	2A	2c	2f
4E	.	.	.
=25	=25	=25	=25
4D	2.d	2f	2f
4C	.	.	.
4BB-y	.	1d	2f
4AA	4c	.	.
2GG	4B-y	.	2.b-y
.	4A	.	.
(2E-i	[2G	4e-i	.
.	.	4d	4b-y
=26	=26	=26	=26
2E-y)	2G]	4c	2cc
.	.	4B-y	.
2D	1F	1B-y	2dd
1C	.	.	1ee-i
.	2E	2A	.
=27	=27	=27	=27
0BB-y	2F	1B-y	0dd
.	2G	.	.
.	1F	2r	.
.	.	2d	.
=28	=28	=28	=28
0r	2r	2.e	0r
.	2G	.	.
.	.	4g	.
.	2.A	2f	.
.	.	2e	.
.	4c	.	.
=29	=29	=29	=29
0r	2B-y	2d	1f
.	2A	4c	.
.	.	4d	.
.	2c	4e	2.g
.	.	4f	.
.	2B-y	[2g	.
.	.	.	4b-y
=30	=30	=30	=30
2r	2c	2g]	1a
2D	2d	2f	.
2E	1B-y	2g	1r
2G	.	[2d	.
=31	=31	=31	=31
2F	0r	2d]	2r
2E	.	4e	2g
.	.	4g	.
2D	.	2f	2a
2C	.	2e	2cc
=32	=32	=32	=32
1D	2r	2d	2b-y
.	2d	2f	2a
2E	2B-y	2e	2g
4F	2A	[2d	2f
4D	.	.	.
=33	=33	=33	=33
2.E-i	2.G	4d]	1g
.	.	4B-y	.
.	.	2c	.
4D	4A	.	.
4BB-y	2B-y	2d	1f
4C	.	.	.
4D	2B-y	2d	.
4BB-y	.	.	.
=34	=34	=34	=34
2C	1A	2e	2r
2D	.	2f	2dd
2.E-i	[1G	1g	2b-y
.	.	.	2g
4D	.	.	.
=35	=35	=35	=35
4C	1G]	2r	2.e
4BB-y	.	.	.
2.C	.	2g	.
.	.	.	4f
.	1r	2e	2g
4BB-y	.	.	.
4AA	.	2c	[2a
4GG	.	.	.
=36	=36	=36	=36
1FF	1c	2.A	4a]
.	.	.	4b-y
.	.	.	2.cc
.	.	4B-y	.
1r	2A	2c	.
.	.	.	4b-y
.	2F	[2d	4a
.	.	.	4g
=37	=37	=37	=37
2r	2.D	4d]	1f
.	.	4e	.
2F	.	2.f	.
.	4E	.	.
2D	2F	.	1r
.	.	4e	.
2BB-y	(2G	4d	.
.	.	4c	.
=38	=38	=38	=38
2GG	2G)	4B-y	1dd
.	.	8AL	.
.	.	8GJ	.
2D	2F	2A	.
1E	2G	[1G	2b-y
.	2B-y	.	2g
=39	=39	=39	=39
2.C	2c	2G]	2.e
.	2.e-X	2.g	.
4D	.	.	4f
4E	.	.	4g
4F	4d	4f	4a
2G	2B-y	4d	4b-y
.	.	4e	4g
=40	=40	=40	=40
2F	2d	2f	4a
.	.	.	4f
2E	2e-i	2g	1b-y
1F	1c	1f	.
.	.	.	2a
=41	=41	=41	=41
2.G	1B-y	1d	2b-y
.	.	.	1dd
4F	.	.	.
1E	1r	2r	.
.	.	[2g	2cc
=42	=42	=42	=42
1D	2r	2g]	2b-y
.	2d	2f	2a
2r	2c	2e	1r
2G	2B-y	[2d	.
=43	=43	=43	=43
2F	2A	2d]	2r
2E	2G	2c#i	1g
2D	2.A	1d	.
2D	.	.	2f
.	4B-y	.	.
=44	=44	=44	=44
2.E	2c	2r	1e
.	4G	2c	.
4F	4A	.	.
2G	4B-y	2B-y	1d
.	4c	.	.
2D	[2d	2A	.
=45	=45	=45	=45
1E	2d]	2G	2r
.	2c#i	2G	2g
2.D	1d	2.A	2.f
4G	.	4B-y	4g
=46	=46	=46	=46
2F	2r	1c	2a
2E	2G	.	1g
2D	2.A	2d	.
2D	.	2d	2f
.	4B-y	.	.
=47	=47	=47	=47
2C	2c	2e	4a
.	.	.	4g
2E	2G	2c	1g
1D	1A	1d	.
.	.	.	2f#i
=48	=48	=48	=48
00GGl	00Gl	00B-yl	00gl
==	==	==	==
*-	*-	*-	*-
!!!system-decoration: [*]
!!!RDF**kern: i = editorial accidental
!!!RDF**kern: l = terminal long
!!!ENC: Benjamin Ory
!!!END: 2021/1/10
!!!EED: Benjamin Ory
!!!EEV: 2021/04/27
!!!YEC: Copyright 2021 Benjamin Ory, All Rights Reserved
!!!ONB: Translated from MusicXML on 2021/04/27
